X:1
T:Little Pot, The
M:2/4
L:1/8
R:Air
N:”Author and date unknown.”
B:Bunting – Ancient Music of Ireland (1840, No. 130, p. 97)
Z:AK/Fiddler’s Companion
K:Bb
"In a playful manner"(BG2).G|(AF2).F|(B>A)(.B.c)|d2B2|c2 (c>B)|(.c.e.d.c)|
(B>c) (.B.A)|TG2F2|(e>d)(.e.f)|g2 (.g.g)|(f>g)(.f.d)|B2G2|(.c.c.c.B)|
(c.d.e.c)|(.B.c.d.e)|[F2B2f2] ([Bg]e)|{de}(d>c)(.B.G)|F2 .G.A|[D2B2] (B>c)|[D2B2][DB]z||

